X:299
T: MIT LUST VOR WENIG TAGEN
N: E1448
O: Europa, Mitteleuropa, Deutschland
R: Staende -, Jaeger - Lied
M: 4/4
L: 1/8
K: G
D2 | G2G2A2GA | B2A2
B2 | c2B2AGA2 | G4z2
D2 | G2G2A2GA | B2A2
B2 | c2B2AGA2 | G4z2
Bc | d4e2 | d4c2 | B3A
B2 | c3Bc2 | d2c2B2 | A4
D2 | G3AB2 | A4G2 | F3E
D2 | E4G2 | G4F2 | G4

